X: 295
%
U:~=!turn!
T: Lady Elizabeth Lindsay
C:Nath. Gow
O:Scotland
B:Keith Norman MacDonald : "The Skye collection of the best reels & strathspeys extant" : 1887
Z:Ralph Palmer
R:Strathspey
M:C|
L:1/8
K:C dorian
g | (f<B){/Bc}d>c (B<G)G>B | F>BD>B F<DD>f | (f<B){Bc}d>c B<GG>B | F>BD>d Tc2 c :|
g | f<d(Td>e) f<dd>g | (f<d)(Td>e) f>g(d<b) | (f<d)(Td>e) f>g(d<b) | f<dTd>B Tc2 (c>g) |
(f<d)(Td>e) (f<d)d>g | (f<d)(Td>e) f>gd>f | (g<b)f>g d>f(c<d) | (G<B)TF>D {/^B,}C2 C |]


